X:1
T:Elfåker, 12.9.12.9
T:Elfåker, 12.9.12.9
T:August Herman Elfåker (1851-1914)
T:Public Domain Courtesy of the Cyber Hymnal™
C:August Herman Elfåker (1851-1914)
Z:Public Domain
Z:Courtesy of the Cyber Hymnal™
%%score ( 1 2 ) ( 3 4 )
L:1/8
Q:1/4=107
M:4/4
K:G
V:1 treble 
V:2 treble 
V:3 bass 
V:4 bass 
V:1
 E>[EF] | [EG]2 [EG]>[EG] [EA]2 [EA]>[Ec] | [^DB]2 [DB]>[DG] [B,E]2 [B,E]>[DF] | %3
 [EG]2 [EG]>[EG] [EA]2 [EA]>[Ec] | [^DB]4 z2 [=DB]>[Dc] | [Dd]2 [Ed]>[EB] [Ec]2 [FB]>[FA] | %6
 [FB]2 [^DB]>[DG] E2 E>[EF] | [EG]2 [EG]>[EG] [EF]2 [^DF]>[B,D] | [B,E]4 z2 |] %9
V:2
 E3/2 x/ | x8 | x8 | x8 | x8 | x8 | x4 E2 E3/2 x/ | x8 | x6 |] %9
V:3
 [E,G,]>[E,A,] | [E,B,]2 [E,B,]>[E,B,] [C,C]2 [C,A,]>[A,,F,] | %2
 [B,,F,]2 [B,,A,]>[B,,A,] [E,G,]2 [G,B,]>[F,B,] | [E,B,]2 [E,B,]>[D,B,] [C,A,]2 [C,A,]>[A,,F,] | %4
 [B,,F,]4 z2 G,>[G,A,] | [G,B,]2 [E,^G,]>[E,G,] [A,,A,]2 [D,F,]>[D,C] | %6
 [^D,B,]2 [B,,A,]>[A,,A,] [C,G,]2 [A,,C]>[A,,C] | %7
 [B,,B,]2 [B,,B,]>[B,,B,] [B,,A,]2 [B,,A,]>[B,,A,] | [E,G,]4 z2 |] %9
V:4
 x2 | x8 | x8 | x8 | x6 G,3/2 x/ | x8 | x8 | x8 | x6 |] %9

